X: 223
U:~=!turn!
M:C
L:1/8
K:E aeolian
fedf eBBA | GABG FGAF | BGAF GEE || f | gfef gebe | gebe geef |
defg adfd | ABAG FDDF | G2 BG F2 AF | Eeef gefd | BcdB AGFA | BGAF GEE |]


